X:83
T:Saraband Sett Of Waltzes No.3. Le4.083
B:L.Leadley MS#4 c1850
Z:Village Music Project, 2016 Steve Mansfield
M:3/4
L:1/4
Q:3/4=60
K:Gmix
G | (Ge)e | edc | (Ga)a | age | (ef)f | (fA)B | (c/B/c/d/)e | G2G |
(Ge)e | (ed)c | (Ga)a | (ag)e | (ef)f | (fA)B | (c/B/c/d/)c | c2 ||
(B/c/) | (ed)A | (ABc) | (ed)G | (GA)G | (GB)c | (ed)c | (BA)G | (gB)c |
(ed)A | (AB)c | (ed)G | (GA)G | (GBc) | edc | gfd | (B_AG) |
(G_e)e | edc | c[cc'][cc'] | c'_b_a | _Bff | f_ed | _Bbb | b_ag |
(Gd)d | (dc)B | cd_e | (=ef^f) | (gG)^f | (gG)f | g=fd | BAG |]

